Origami/32x32/apps/diablo-2.svg

<svg width="32" height="32" version="1.1" viewBox="0 0 32 32" xmlns="http://www.w3.org/2000/svg">
 <path d="m4.5729993 2.549733c0.6924831 0.4835231 1.8717172 1.2104104 2.7117329 1.8663094 0.6407928 0.5994865 0.7438421 0.8928435 0.7438421 1.8471096v10.9964c0 2.928465 0.3422715 5.052724-0.6414285 7.27083-1.0856633 2.448021-3.3801412 3.195057-4.9664641 5.366006-1.510446 1.867918 1.4422844 0.976918 2.6006366 0.391224 2.482626-1.25528 4.4597739-1.957631 7.4337917-2.282255 3.749524-0.0741 6.113428 0.08607 9.520874 0.0096 6.166873 4.3e-5 9.024016-6.015016 9.024016-13.769364 0-6.5313658-2.857143-12.245652-9.603193-12.21406-5.769143-0.0267026-14.198532-0.0308348-16.863806-0.0314743-0.7616587-1.171e-4 -0.4422169 0.214808 0.0399986 0.5496744z" style="fill-rule:evenodd;opacity:.2"/>
 <path d="m4.5729993 1.549733c0.6924831 0.4835231 1.8717172 1.2104104 2.7117329 1.8663094 0.6407928 0.5994865 0.7438421 0.8928435 0.7438421 1.8471096v10.9964c0 2.928465 0.3422715 5.052724-0.6414285 7.27083-1.0856633 2.448021-3.3801412 3.195057-4.9664641 5.366006-1.510446 1.867918 1.4422844 0.976918 2.6006366 0.391224 2.482626-1.25528 4.4597739-1.957631 7.4337917-2.282255 3.749524-0.0741 6.113428 0.08607 9.520874 0.0096 6.166873 4.3e-5 9.024016-6.015016 9.024016-13.769364 0-6.5313658-2.857143-12.245651-9.603193-12.21406-5.769143-0.0267026-14.198532-0.0308348-16.863806-0.0314743-0.7616587-1.1707e-4 -0.4422169 0.214808 0.0399986 0.5496744z" style="fill-rule:evenodd;fill:#e97e10"/>
 <path d="m14.193612 6.0002953c2.171129 0.00419 6.622838 0.065093 7.495879 0.4887444 3.813281 2.1417435 4.383871 4.7104653 4.303602 8.3703543 0.105758 3.311653-1.114082 6.882317-4.303602 8.575736-1.164054 0.564869-8.496239 0.56487-8.496239 0.56487l-0.193252-17.996395s0.469904-0.00471 1.193612-0.00336z" style="fill-rule:evenodd;opacity:.2"/>
 <path d="m14.193612 5.0002953c2.171129 0.00419 6.622838 0.065093 7.495879 0.4887444 3.813281 2.1417435 4.383871 4.7104653 4.303602 8.3703543 0.105758 3.311653-1.114082 6.882317-4.303602 8.575736-1.164054 0.564869-8.496239 0.56487-8.496239 0.56487l-0.193252-17.996395s0.469904-0.00471 1.193612-0.00336z" style="fill-rule:evenodd;fill:#ffffff"/>
 <path d="m9.9726562 15.023438c-0.09406 0.04678 0.1763978 0.708178 0.4726558 1.121093 0.451625 0.629458 0.750991 0.99826 1.376954 1.56836 0.819338 0.746219 1.032544 0.870466 1.376953 1.21875 0.34441 0.348286 0.791015 1.003906 0.791015 1.003906v10.148437c0 0.69657-0.710446 1.136913-0.939453 1.220704-0.323253 0.118273-1.023437 0.345703-1.023437 0.345703v0.349609h7.972656v-0.347656s-0.81542-0.229382-1.138672-0.347656c-0.229007-0.08379-0.810243-0.524181-0.818359-1.220704v-10.322265c0-0.749733 0.664253-0.932347 0.925781-1.044922 0.3543-0.152508 0.860997-0.175153 1.033203-0.523438 0.172204-0.348285-0.217352-0.174614-0.345703-0.173828-1.236647 0.0072-4.458984 0-4.458984 0-0.84131 1e-6 -1.661849-0.113831-2.341797-0.480469-0.480517-0.2591-0.937915-0.600944-1.376953-1.044921l-1.378907-1.394532c-0.06458-0.06531-0.1052448-0.08697-0.1269528-0.07617zm21.09961 0c-0.02171-0.0108-0.06237 0.01086-0.126954 0.07617l-1.378906 1.394532c-0.439038 0.443977-0.896436 0.785821-1.376953 1.044921-0.679948 0.366638-1.498534 0.48047-2.339844 0.480469 0 0-3.22429 0.0072-4.460937 0-0.128351-7.86e-4 -0.517907-0.174457-0.345703 0.173828 0.172206 0.348285 0.678903 0.37093 1.033203 0.523438 0.261528 0.112575 0.925781 0.295189 0.925781 1.044922v10.322265c-0.0081 0.696523-0.589352 1.136913-0.818359 1.220704-0.323252 0.118273-1.125 0.345703-1.125 0.345703v0.34961h7.958984v-0.349609s-0.700184-0.22743-1.023437-0.345703c-0.229007-0.08379-0.939453-0.524134-0.939453-1.220704v-10.148437s0.446605-0.65562 0.791015-1.003906c0.344409-0.348284 0.557615-0.472531 1.376953-1.21875 0.625963-0.5701 0.925328-0.938902 1.376953-1.56836 0.296259-0.412915 0.566717-1.074313 0.472657-1.121093z" style="fill-rule:evenodd;opacity:.2"/>
 <path d="m9.9726562 14.023438c-0.09406 0.04678 0.1763978 0.708178 0.4726558 1.121093 0.451625 0.629458 0.750991 0.99826 1.376954 1.56836 0.819338 0.746219 1.032544 0.870466 1.376953 1.21875 0.34441 0.348286 0.791015 1.003906 0.791015 1.003906v10.148437c0 0.69657-0.710446 1.136913-0.939453 1.220704-0.323253 0.118273-1.023437 0.345703-1.023437 0.345703v0.349609h3.857422 4.115234v-0.347656s-0.81542-0.229382-1.138672-0.347656c-0.229007-0.083791-0.810243-0.524181-0.818359-1.220704v-8.580078-1.568359-0.173828c0-0.749733 0.664253-0.932347 0.925781-1.044922 0.3543-0.152508 0.860997-0.175153 1.033203-0.523438 0.172204-0.348285-0.217352-0.174614-0.345703-0.173828-1.236647 0.0072-4.458984 0-4.458984 0-0.84131 1e-6 -1.661849-0.113831-2.341797-0.480469-0.480517-0.2591-0.937915-0.600944-1.376953-1.044921l-1.378907-1.394532c-0.06458-0.06531-0.1052448-0.086971-0.1269528-0.076171zm21.09961 0c-0.021708-0.0108-0.062374 0.010861-0.126954 0.076171l-1.378906 1.394532c-0.439038 0.443977-0.896436 0.785821-1.376953 1.044921-0.679948 0.366638-1.498534 0.48047-2.339844 0.480469 0 0-3.22429 0.0072-4.460937 0-0.128351-7.86e-4 -0.517907-0.174457-0.345703 0.173828 0.172206 0.348285 0.678903 0.37093 1.033203 0.523438 0.261528 0.112575 0.925781 0.295189 0.925781 1.044922v0.173828 1.568359 8.580078c-0.008116 0.696523-0.589352 1.136913-0.818359 1.220704-0.323252 0.118273-1.125 0.345703-1.125 0.345703v0.349609h4.101562 3.857422v-0.349609s-0.700184-0.22743-1.023437-0.345703c-0.229007-0.083791-0.939453-0.524134-0.939453-1.220704v-10.148437s0.446605-0.65562 0.791015-1.003906c0.344409-0.348284 0.557615-0.472531 1.376953-1.21875 0.625963-0.5701 0.925328-0.938902 1.376953-1.56836 0.296259-0.412915 0.566717-1.074313 0.472657-1.121093z" style="fill-rule:evenodd;fill:#c2352a"/>
 <path d="m4.5332031 1c-0.7616587-1.1707e-4 -0.443153 0.2139617 0.0390625 0.5488281 0.1804341 0.1259873 0.4458187 0.2996537 0.6777344 0.453125 3.0066037 9.296e-4 10.622567 0.0037293 16.146484 0.0292969 6.586761-0.0308455 9.459495 5.4190716 9.591797 11.755859 0.003194-0.181144 0.011719-0.357874 0.011719-0.541015 0-6.531366-2.857466-12.246435-9.603516-12.214844-5.769143-0.0267026-14.198007-0.0306105-16.863281-0.03125zm3.5390625 19.240234c-0.0420765 1.144039-0.2047903 2.206977-0.6855468 3.291016-1.0856634 2.448021-3.380474 3.194285-4.9667969 5.365234-0.6002085 0.742258-0.4830661 1.038325-0.0664063 1.101563 0.0291626-0.038726 0.0329262-0.060159 0.0664063-0.101563 1.5863229-2.170949 3.8811335-2.919166 4.9667969-5.367187 0.6146814-1.386021 0.6993135-2.757218 0.6855468-4.289063z" style="fill-rule:evenodd;fill:#ffffff;opacity:.2"/>
</svg>

<svg xmlns="http://www.w3.org/2000/svg" width="32" height="32" version="1.1" viewBox="0 0 32 32">
 <path style="opacity:0.2;fill-rule:evenodd" d="M 4.5729993,2.549733 C 5.2654824,3.0332561 6.4447165,3.7601434 7.2847322,4.4160424 7.925525,5.0155289 8.0285743,5.3088859 8.0285743,6.263152 v 10.9964 c 0,2.928465 0.3422715,5.052724 -0.6414285,7.27083 -1.0856633,2.448021 -3.3801412,3.195057 -4.9664641,5.366006 -1.51044605,1.867918 1.4422844,0.976918 2.6006366,0.391224 2.482626,-1.25528 4.4597739,-1.957631 7.4337917,-2.282255 3.749524,-0.0741 6.113428,0.08607 9.520874,0.0096 C 28.142857,28.015 31,21.999941 31,14.245593 31,7.7142272 28.142857,1.9999415 21.396807,2.0315329 15.627664,2.0048303 7.198275,2.0006981 4.5330007,2.0000586 3.771342,1.9999415 4.0907838,2.2148666 4.5729993,2.549733 Z"/>
 <path style="fill:#e97e10;fill-rule:evenodd" d="M 4.5729993,1.549733 C 5.2654824,2.0332561 6.4447165,2.7601434 7.2847322,3.4160424 7.925525,4.0155289 8.0285743,4.3088859 8.0285743,5.263152 v 10.9964 c 0,2.928465 0.3422715,5.052724 -0.6414285,7.27083 -1.0856633,2.448021 -3.3801412,3.195057 -4.9664641,5.366006 -1.51044605,1.867918 1.4422844,0.976918 2.6006366,0.391224 2.482626,-1.25528 4.4597739,-1.957631 7.4337917,-2.282255 3.749524,-0.0741 6.113428,0.08607 9.520874,0.0096 C 28.142857,27.015 31,20.999941 31,13.245593 31,6.7142272 28.142857,0.99994153 21.396807,1.0315329 15.627664,1.0048303 7.198275,1.0006981 4.5330007,1.0000586 3.771342,0.99994153 4.0907838,1.2148666 4.5729993,1.549733 Z"/>
 <path style="opacity:0.2;fill-rule:evenodd" d="m 14.193612,6.0002953 c 2.171129,0.00419 6.622838,0.065093 7.495879,0.4887444 3.813281,2.1417435 4.383871,4.7104653 4.303602,8.3703543 0.105758,3.311653 -1.114082,6.882317 -4.303602,8.575736 C 20.525437,23.999999 13.193252,24 13.193252,24 L 13,6.0036049 c 0,0 0.469904,-0.00471 1.193612,-0.00336 z"/>
 <path style="fill:#ffffff;fill-rule:evenodd" d="m 14.193612,5.0002953 c 2.171129,0.00419 6.622838,0.065093 7.495879,0.4887444 3.813281,2.1417435 4.383871,4.7104653 4.303602,8.3703543 0.105758,3.311653 -1.114082,6.882317 -4.303602,8.575736 C 20.525437,22.999999 13.193252,23 13.193252,23 L 13,5.0036049 c 0,0 0.469904,-0.00471 1.193612,-0.00336 z"/>
 <path style="opacity:0.2;fill-rule:evenodd" d="m 9.9726562,15.023438 c -0.09406,0.04678 0.1763978,0.708178 0.4726558,1.121093 0.451625,0.629458 0.750991,0.99826 1.376954,1.56836 0.819338,0.746219 1.032544,0.870466 1.376953,1.21875 0.34441,0.348286 0.791015,1.003906 0.791015,1.003906 v 10.148437 c 0,0.69657 -0.710446,1.136913 -0.939453,1.220704 -0.323253,0.118273 -1.023437,0.345703 -1.023437,0.345703 V 32 H 15.884766 20 v -0.347656 c 0,0 -0.81542,-0.229382 -1.138672,-0.347656 -0.229007,-0.08379 -0.810243,-0.524181 -0.818359,-1.220704 v -8.580078 -1.568359 -0.173828 c 0,-0.749733 0.664253,-0.932347 0.925781,-1.044922 0.3543,-0.152508 0.860997,-0.175153 1.033203,-0.523438 0.172204,-0.348285 -0.217352,-0.174614 -0.345703,-0.173828 -1.236647,0.0072 -4.458984,0 -4.458984,0 -0.84131,1e-6 -1.661849,-0.113831 -2.341797,-0.480469 -0.480517,-0.2591 -0.937915,-0.600944 -1.376953,-1.044921 l -1.378907,-1.394532 c -0.06458,-0.06531 -0.1052448,-0.08697 -0.1269528,-0.07617 z m 21.0996098,0 c -0.02171,-0.0108 -0.06237,0.01086 -0.126954,0.07617 l -1.378906,1.394532 c -0.439038,0.443977 -0.896436,0.785821 -1.376953,1.044921 -0.679948,0.366638 -1.498534,0.48047 -2.339844,0.480469 0,0 -3.22429,0.0072 -4.460937,0 -0.128351,-7.86e-4 -0.517907,-0.174457 -0.345703,0.173828 0.172206,0.348285 0.678903,0.37093 1.033203,0.523438 0.261528,0.112575 0.925781,0.295189 0.925781,1.044922 v 0.173828 1.568359 8.580078 c -0.0081,0.696523 -0.589352,1.136913 -0.818359,1.220704 -0.323252,0.118273 -1.125,0.345703 -1.125,0.345703 V 32 h 4.101562 3.857422 v -0.349609 c 0,0 -0.700184,-0.22743 -1.023437,-0.345703 -0.229007,-0.08379 -0.939453,-0.524134 -0.939453,-1.220704 V 19.935547 c 0,0 0.446605,-0.65562 0.791015,-1.003906 0.344409,-0.348284 0.557615,-0.472531 1.376953,-1.21875 0.625963,-0.5701 0.925328,-0.938902 1.376953,-1.56836 0.296259,-0.412915 0.566717,-1.074313 0.472657,-1.121093 z"/>
 <path style="fill:#c2352a;fill-rule:evenodd" d="M 9.9726562 14.023438 C 9.8785962 14.070218 10.149054 14.731616 10.445312 15.144531 C 10.896937 15.773989 11.196303 16.142791 11.822266 16.712891 C 12.641604 17.45911 12.85481 17.583357 13.199219 17.931641 C 13.543629 18.279927 13.990234 18.935547 13.990234 18.935547 L 13.990234 29.083984 C 13.990234 29.780554 13.279788 30.220897 13.050781 30.304688 C 12.727528 30.422961 12.027344 30.650391 12.027344 30.650391 L 12.027344 31 L 15.884766 31 L 20 31 L 20 30.652344 C 20 30.652344 19.18458 30.422962 18.861328 30.304688 C 18.632321 30.220897 18.051085 29.780507 18.042969 29.083984 L 18.042969 20.503906 L 18.042969 18.935547 L 18.042969 18.761719 C 18.042969 18.011986 18.707222 17.829372 18.96875 17.716797 C 19.32305 17.564289 19.829747 17.541644 20.001953 17.193359 C 20.174157 16.845074 19.784601 17.018745 19.65625 17.019531 C 18.419603 17.026731 15.197266 17.019531 15.197266 17.019531 C 14.355956 17.019532 13.535417 16.9057 12.855469 16.539062 C 12.374952 16.279962 11.917554 15.938118 11.478516 15.494141 L 10.099609 14.099609 C 10.035029 14.034299 9.9943642 14.012638 9.9726562 14.023438 z M 31.072266 14.023438 C 31.050558 14.012638 31.009892 14.034299 30.945312 14.099609 L 29.566406 15.494141 C 29.127368 15.938118 28.66997 16.279962 28.189453 16.539062 C 27.509505 16.9057 26.690919 17.019532 25.849609 17.019531 C 25.849609 17.019531 22.625319 17.026731 21.388672 17.019531 C 21.260321 17.018745 20.870765 16.845074 21.042969 17.193359 C 21.215175 17.541644 21.721872 17.564289 22.076172 17.716797 C 22.3377 17.829372 23.001953 18.011986 23.001953 18.761719 L 23.001953 18.935547 L 23.001953 20.503906 L 23.001953 29.083984 C 22.993837 29.780507 22.412601 30.220897 22.183594 30.304688 C 21.860342 30.422961 21.058594 30.650391 21.058594 30.650391 L 21.058594 31 L 25.160156 31 L 29.017578 31 L 29.017578 30.650391 C 29.017578 30.650391 28.317394 30.422961 27.994141 30.304688 C 27.765134 30.220897 27.054688 29.780554 27.054688 29.083984 L 27.054688 18.935547 C 27.054688 18.935547 27.501293 18.279927 27.845703 17.931641 C 28.190112 17.583357 28.403318 17.45911 29.222656 16.712891 C 29.848619 16.142791 30.147984 15.773989 30.599609 15.144531 C 30.895868 14.731616 31.166326 14.070218 31.072266 14.023438 z"/>
 <path style="fill:#ffffff;fill-rule:evenodd;opacity:0.2" d="M 4.5332031 1 C 3.7715444 0.99988293 4.0900501 1.2139617 4.5722656 1.5488281 C 4.7526997 1.6748154 5.0180843 1.8484818 5.25 2.0019531 C 8.2566037 2.0028827 15.872567 2.0056824 21.396484 2.03125 C 27.983245 2.0004045 30.855979 7.4503216 30.988281 13.787109 C 30.991475 13.605965 31 13.429235 31 13.246094 C 31 6.714728 28.142534 0.99965863 21.396484 1.03125 C 15.627341 1.0045474 7.1984774 1.0006395 4.5332031 1 z M 8.0722656 20.240234 C 8.0301891 21.384273 7.8674753 22.447211 7.3867188 23.53125 C 6.3010554 25.979271 4.0062448 26.725535 2.4199219 28.896484 C 1.8197134 29.638742 1.9368558 29.934809 2.3535156 29.998047 C 2.3826782 29.959321 2.3864418 29.937888 2.4199219 29.896484 C 4.0062448 27.725535 6.3010554 26.977318 7.3867188 24.529297 C 8.0014002 23.143276 8.0860323 21.772079 8.0722656 20.240234 z"/>
</svg>
